X:1
T:Der Lenz ist angekommen
T:Felix Mendelssohn Bartholdy
T:Der Lenz ist angekommen
T:CPDL - Creative Commons Attribution Non Commercial 3.0
T:CPDL - Creative Commons Attribution Non Commercial 3.0
T:CPDL - Creative Commons Attribution Non Commercial 3.0
T:CPDL - Creative Commons Attribution Non Commercial 3.0
C:Felix Mendelssohn Bartholdy
Z:CPDL - Creative Commons Attribution Non Commercial 3.0
%%score [ 1 2 3 4 ]
L:1/8
Q:1/4=88
M:2/4
K:F
V:1 treble nm="S"
V:2 treble nm="A"
V:3 treble-8 nm="T"
V:4 bass nm="B"
V:1
"^Frisch und froh"!mf! f | !>!c!<(!A Gd!<)! | !>!d2!>(! !breath!c!>)!!p!F | GA cB | %4
w: 1.~Der|Lenz ist an- ge-|kom- men! Habt|ihr es nicht ver-|
w: 2.~Ihr|seht es an den|Fel- dern, ihr|seht es an den|
 G2 !breath!G!mf! A/B/ | c!<(!A Gd!<)! | !>!d2!>(! !breath!c!>)!A |!<(! AG A=B!<)! | %8
w: nom- men? Der _|Lenz ist an- ge-|kom- men! Habt|ihr es nicht ver-|
w: Wäl- dern, ihr _|fühlt es in den|Her- zen, ihr|singt's mit Lust und|
!>(! dc!>)! !breath!=B!p!A | !breath!G3"^cresc." A/G/ | !breath!G3 A/G/ |!f! Gc !>!ed | %12
w: nom- * men, der|Lenz, der _|Lenz ist _|an- ge- kom- *|
w: Scher- * zen, *||||
!>(! c2!>)! z!p!"^Soli" !>!c | !>!G!<(!E DA!<)! | !>!G>!>(!E !breath!G!>)!!>!c | !>!G!<(!E DA!<)! | %16
w: men! Das|sa- gen euch die|Vö- ge- lein, das|sa- gen euch die|
w: * Ach|seht doch, wie sich|Al- les freut! Es|hat die Welt sich|
 !>!G>!>(!E G!>)! z | z!f! d!<(! cB | A!<)! c/!>(!B/ AG!>)! | z!p! c DE | FB G2- | %21
w: Blü- me- lein,|der Lenz ist|an- ge- * kom- men.|Der hol- de,|schö- ne Lenz,|
w: schön er- neut,|||||
 !breath!G!mf!c DE | !>!FB G2- | !breath!G"^Tutti"G!<(! AB!<)! |!ff! !^!c!^!f !^!ed | (c2!>(! BG) | %26
w: _ der hol- de,|schö- ne Lenz,|_ der Lenz ist|an- * * ge-|kom- * *|
w: |||||
 !breath!F!>)!!mf!B!>(! AG!>)! |!p!"^dim." F4- |!pp! !fermata!F2 !fermata!z |] %29
w: men, der hol- de|Lenz.|_|
w: |||
V:2
!mf! A | !>!F!<(!F FE!<)! | !>!E2!>(! !breath!F!>)!!p!F | FF FF | FE/D/ !breath!E!mf! F/G/ | %5
w: |||||
 A!<(!F FE!<)! | !>!E2!>(! !breath!F!>)!F |!<(! FF FF!<)! |!>(! FE!>)! !breath!E!p!F | %9
w: ||||
 (E2 !breath!D)"^cresc."F | (E2 !breath!D)D |!f! CE !>!GF |!>(! E2!>)! z!p! !>!F | %13
w: ||||
 !>!E!<(!C =B,B,!<)! | !>!C>!>(!C !breath!E!>)!!>!F | !>!E!<(!C =B,B,!<)! | !>!C>!>(!C E!>)!!f!F | %17
w: |||* * * der|
 EE!<(! FG | A!<)! A/!>(!G/ FE!>)! | z!p! E DE | FF (FE/D/ | !breath!E)!mf!E DE | !>!FF (FE/D/ | %23
w: Lenz, * * *||||||
 !breath!E)E!<(! FG!<)! |!ff! (A F2) F | (F2!>(! EC) | !breath!C!>)!!mf!F!>(! FF!>)! | %27
w: |||* der hol- de|
!p! !breath!F"^dim."F !>!ED |!pp! !fermata!C2 !fermata!z |] %29
w: Lenz, der lie- be|Lenz.|
V:3
!mf! c | !>!A!<(!c BB!<)! | !>!B2!>(! !breath!A!>)!!p!c | dd dd | c2 c/!breath!B/!mf! A/G/ | %5
w: 1.~Der|Lenz ist an- ge-|kom- men! Habt|ihr es nicht ver-|nom- men? * Der _|
w: 2.~Ihr|seht es an den|Fel- dern, ihr|seht es an den|Wäl- dern, * ihr _|
 F!<(!A BB!<)! | !>!B2!>(! !breath!A!>)!d |!<(! dd dd!<)! |!>(! =Bc!>)! !breath!c!p!c | %9
w: Lenz ist an- ge-|kom- men! Habt|ihr es nicht ver-|nom- * men, der|
w: fühlt es in den|Her- zen, ihr|singt's mit Lust und|Scher- * zen, *|
 Gc !breath!=B"^cresc."B | Gc !breath!=BB |!f! cG !>!c=B |!>(! c2!>)! z!p! !>!A | %13
w: Lenz, _ _ der|Lenz _ _ ist|an- ge- kom- *|men! Das|
w: |||* Ach|
 !>!c!<(!G FF!<)! | !>!E>!>(!G !breath!c!>)!!>!A | !>!c!<(!G FF!<)! | !>!E>!>(!G c!>)!!f!c | %17
w: sa- gen euch die|Vö- ge- lein, das|sa- gen euch die|Blü- me- lein, der|
w: seht doch, wie sich|Al- les freut! Es|hat die Welt sich|schön er- neut, *|
 cc!<(! ce | f!<)!d!>(! cc!>)! | z!p! c =B_B | Ad c2- | !breath!c!mf!c =B_B | !>!Ad c2- | %23
w: Lenz, der Lenz ist|an- ge- kom- men.|Der hol- de,|schö- ne Lenz,|_ der hol- de,|schö- ne Lenz,|
w: ||||||
 !breath!cc!<(! cc!<)! |!ff! !^!A!^!d !^!cB | (A2!>(! GB) | !breath!A!>)!!mf!d!>(! cB!>)! | %27
w: _ der Lenz ist|an- * * ge-|kom- * *|men, der hol- de|
w: ||||
!p! !breath!A"^dim."d !>!cB |!pp! !fermata!A2 !fermata!z |] %29
w: Lenz, der lie- be|Lenz.|
w: ||
V:4
!mf! F, | !>!F,!<(!F, F,F,!<)! | !>!F,2!>(! !breath!F,!>)!!p!A, | B,A, G,G, | C2 !breath!C,!mf!C, | %5
w: |||||
 F,!<(!F, F,F,!<)! | !>!F,2!>(! !breath!F,!>)!D, |!<(! C=B, A,A,!<)! | %8
w: |||
!>(! A,2!>)! !breath!G,!p!F, | !breath!G,3"^cresc." G,, | !breath!G,3 F, |!f! E,C, !>!G,,2 | %12
w: ||||
!>(! C,2!>)! z!p! !>!C, | !>!C,!<(!C, C,C,!<)! | !>!C,>!>(!C, !breath!C,!>)!!>!C, | %15
w: |||
 !>!C,!<(!C, C,C,!<)! | !>!C,>!>(!C, C,!>)!!f!A, | G,B,!<(! A,G, | F,!<)!B,,!>(! C,C,!>)! | %19
w: ||||
!p! C,4- | !breath!C,3 C, | C,4- | !breath!C,3 C, | !breath!CB,!<(! A,G,!<)! |!ff! F,3 B,, | C,4 | %26
w: ja,|_ der|Lenz,|_ der|Lenz, * * *|||
!>(! !breath!F,!>)!!mf!F,!>(! F,F,!>)! |!p!"^dim." [F,,F,]4- |!pp! !fermata![F,,F,]2 !fermata!z |] %29
w: * der hol- de|Lenz.|_|

